Src/Delivery/studio/bitmaps/src/icons/7/21.svg

<?xml version="1.0" encoding="UTF-8" standalone="no"?>
<svg
   xmlns:dc="http://purl.org/dc/elements/1.1/"
   xmlns:cc="http://creativecommons.org/ns#"
   xmlns:rdf="http://www.w3.org/1999/02/22-rdf-syntax-ns#"
   xmlns:svg="http://www.w3.org/2000/svg"
   xmlns="http://www.w3.org/2000/svg"
   xmlns:xlink="http://www.w3.org/1999/xlink"
   xmlns:sodipodi="http://sodipodi.sourceforge.net/DTD/sodipodi-0.dtd"
   xmlns:inkscape="http://www.inkscape.org/namespaces/inkscape"
   height="100"
   viewBox="0 0 100 100"
   width="100"
   version="1.1"
   id="svg36"
   sodipodi:docname="21.svg"
   inkscape:version="1.0.2-2 (e86c870879, 2021-01-15)">
  <metadata
     id="metadata42">
    <rdf:RDF>
      <cc:Work
         rdf:about="">
        <dc:format>image/svg+xml</dc:format>
        <dc:type
           rdf:resource="http://purl.org/dc/dcmitype/StillImage" />
        <dc:title></dc:title>
      </cc:Work>
    </rdf:RDF>
  </metadata>
  <defs
     id="defs40" />
  <sodipodi:namedview
     pagecolor="#ffffff"
     bordercolor="#666666"
     borderopacity="1"
     objecttolerance="10"
     gridtolerance="10"
     guidetolerance="10"
     inkscape:pageopacity="0"
     inkscape:pageshadow="2"
     inkscape:window-width="3840"
     inkscape:window-height="2080"
     id="namedview38"
     showgrid="false"
     showguides="true"
     inkscape:guide-bbox="true"
     inkscape:zoom="2.52"
     inkscape:cx="223.38422"
     inkscape:cy="224.76053"
     inkscape:window-x="2869"
     inkscape:window-y="-11"
     inkscape:window-maximized="1"
     inkscape:current-layer="svg36"
     inkscape:document-rotation="0" />
  <linearGradient
     id="a">
    <stop
       offset="0"
       stop-color="#c9c9c9"
       id="stop2" />
    <stop
       offset="1"
       stop-color="#e3f9fc"
       id="stop4" />
  </linearGradient>
  <linearGradient
     id="b"
     gradientTransform="matrix(.84335867 .40834093 -.39923406 .86259641 28.26115 -6.440423)"
     gradientUnits="userSpaceOnUse"
     x1="9.940678"
     x2="24.805084"
     xlink:href="#a"
     y1="77.542374"
     y2="48.728813" />
  <linearGradient
     id="c"
     gradientTransform="matrix(.84335867 .40834093 -.39923406 .86259641 28.26115 -18.440423)"
     gradientUnits="userSpaceOnUse"
     x1="9.940678"
     x2="24.805084"
     xlink:href="#a"
     y1="77.542374"
     y2="48.728813" />
  <linearGradient
     id="d"
     gradientTransform="matrix(.84335867 .40834093 -.39923406 .86259641 28.26115 -32.440423)"
     gradientUnits="userSpaceOnUse"
     x1="9.940678"
     x2="24.805084"
     xlink:href="#a"
     y1="77.542374"
     y2="48.728813" />
  <path
     id="rect868"
     style="fill:#ff686c;fill-opacity:1;stroke:#9d0006;stroke-width:7.99999;stroke-linecap:square;stroke-linejoin:miter;stroke-opacity:1;paint-order:stroke fill markers"
     d="M 66.617009,20.655069 50,37.272078 33.382991,20.655069 20.655069,33.382991 37.272078,50 20.655069,66.617009 33.382991,79.344931 50,62.727922 66.617009,79.344931 79.344931,66.617009 62.727922,50 79.344931,33.382991 Z"
     sodipodi:nodetypes="ccccccccccccc" />
</svg>

<?xml version="1.0" encoding="UTF-8"?>
<svg width="100" height="100" version="1.1" viewBox="0 0 100 100" xmlns="http://www.w3.org/2000/svg" xmlns:xlink="http://www.w3.org/1999/xlink">
 <path d="m66.617 20.655-16.617 16.617-16.617-16.617-12.728 12.728 16.617 16.617-16.617 16.617 12.728 12.728 16.617-16.617 16.617 16.617 12.728-12.728-16.617-16.617 16.617-16.617z" fill="#ff686c" stroke="#9d0006" stroke-linecap="square" stroke-width="8" style="paint-order:stroke fill markers"/>
</svg>
